src/assets/secure-payments.svg

<svg width="633" height="633" fill="none" xmlns="http://www.w3.org/2000/svg"><circle cx="316.5" cy="316.5" r="316.5" fill="url(#paint0_linear_1064_2029)"/><path d="M425.591 212H206.324C182.99 212 164 230.99 164 254.324v142.473c0 23.334 18.99 42.324 42.324 42.324H327.38a9.18 9.18 0 000-18.358H206.324c-13.217 0-23.967-10.749-23.967-23.966v-73.735h267.201v15.705a9.18 9.18 0 0018.357 0v-84.433C467.915 231 448.926 212 425.591 212zm-219.267 18.367h219.267c13.218 0 23.967 10.75 23.967 23.967v8.72H182.357v-8.72c0-13.217 10.75-23.967 23.967-23.967zm-23.967 74.327v-23.273h267.201v23.273H182.357z" fill="#fff"/><path d="M217.114 360.663h28.117a9.18 9.18 0 000-18.357h-28.117a9.18 9.18 0 000 18.357zm0 34.563h56.235a9.18 9.18 0 000-18.357h-56.235a9.18 9.18 0 000 18.357zm200.829-2.478l-16.43 13.248-3.569-4.549c-3.121-3.967-8.904-4.691-12.891-1.55a9.183 9.183 0 00-1.561 12.891l9.312 11.871a9.194 9.194 0 007.22 3.518c2.091 0 4.12-.713 5.762-2.029l23.671-19.081c3.947-3.193 4.569-8.965 1.387-12.912-3.172-3.967-8.954-4.579-12.901-1.407z" fill="#fff"/><path d="M457.013 367.609l-40.916-20.571c-5.579-2.794-12.208-2.804-17.776.01l-40.896 20.55c-6.803 3.407-11.076 10.535-10.913 18.154.429 19.52 6.14 66.963 49.738 85.902a27.578 27.578 0 0010.964 2.274c3.743 0 7.475-.755 10.953-2.274 43.599-18.929 49.31-66.382 49.738-85.892.184-7.618-4.1-14.747-10.892-18.153zm-46.158 87.217c-2.315 1-4.967 1-7.292 0-33.88-14.706-38.357-53.481-38.704-69.472a1.469 1.469 0 01.796-1.356l40.886-20.55c.214-.102.438-.164.663-.164.224 0 .438.051.642.153l40.916 20.571c.5.245.796.755.786 1.346-.347 15.991-4.824 54.756-38.693 69.472z" fill="#fff"/><defs><linearGradient id="paint0_linear_1064_2029" x1="-68.487" y1="381.809" x2="701.487" y2="388.191" gradientUnits="userSpaceOnUse"><stop stop-color="#024EC9"/><stop offset="1" stop-color="#3884FF"/></linearGradient></defs></svg>

<svg width="633" height="633" viewBox="0 0 633 633" fill="none" xmlns="http://www.w3.org/2000/svg">
<circle cx="316.5" cy="316.5" r="316.5" fill="url(#paint0_linear_1064_2029)"/>
<path d="M425.591 212H206.324C182.99 212 164 230.99 164 254.324V396.797C164 420.131 182.99 439.121 206.324 439.121H327.38C332.449 439.121 336.559 435.011 336.559 429.942C336.559 424.873 332.449 420.763 327.38 420.763H206.324C193.107 420.763 182.357 410.014 182.357 396.797V323.062H449.558V338.767C449.558 343.836 453.668 347.946 458.737 347.946C463.805 347.946 467.915 343.836 467.915 338.767V254.334C467.915 231 448.926 212 425.591 212ZM206.324 230.367H425.591C438.809 230.367 449.558 241.117 449.558 254.334V263.054H182.357V254.334C182.357 241.117 193.107 230.367 206.324 230.367ZM182.357 304.694V281.421H449.558V304.694H182.357Z" fill="white"/>
<path d="M217.114 360.663H245.231C250.3 360.663 254.41 356.553 254.41 351.485C254.41 346.416 250.3 342.306 245.231 342.306H217.114C212.046 342.306 207.936 346.416 207.936 351.485C207.936 356.553 212.046 360.663 217.114 360.663ZM217.114 395.226H273.349C278.417 395.226 282.527 391.116 282.527 386.048C282.527 380.979 278.417 376.869 273.349 376.869H217.114C212.046 376.869 207.936 380.979 207.936 386.048C207.936 391.116 212.046 395.226 217.114 395.226ZM417.943 392.748L401.513 405.996L397.944 401.447C394.823 397.48 389.04 396.756 385.053 399.897C381.065 403.028 380.362 408.79 383.492 412.788L392.804 424.659C394.323 426.587 396.547 427.841 398.984 428.116C399.331 428.157 399.677 428.177 400.024 428.177C402.115 428.177 404.144 427.464 405.786 426.148L429.457 407.067C433.404 403.874 434.026 398.102 430.844 394.155C427.672 390.188 421.89 389.576 417.943 392.748Z" fill="white"/>
<path d="M457.013 367.609L416.097 347.038C410.518 344.244 403.889 344.234 398.321 347.048L357.425 367.598C350.622 371.005 346.349 378.133 346.512 385.752C346.941 405.272 352.652 452.715 396.25 471.654C399.728 473.163 403.471 473.928 407.214 473.928C410.957 473.928 414.689 473.173 418.167 471.654C461.766 452.725 467.477 405.272 467.905 385.762C468.089 378.144 463.805 371.015 457.013 367.609ZM410.855 454.826C408.54 455.826 405.888 455.826 403.563 454.826C369.683 440.12 365.206 401.345 364.859 385.354C364.849 384.773 365.145 384.263 365.655 383.998L406.541 363.448C406.755 363.346 406.979 363.284 407.204 363.284C407.428 363.284 407.642 363.335 407.846 363.437L448.762 384.008C449.262 384.253 449.558 384.763 449.548 385.354C449.201 401.345 444.724 440.11 410.855 454.826Z" fill="white"/>
<defs>
<linearGradient id="paint0_linear_1064_2029" x1="-68.4868" y1="381.809" x2="701.487" y2="388.191" gradientUnits="userSpaceOnUse">
<stop stop-color="#024EC9"/>
<stop offset="1" stop-color="#3884FF"/>
</linearGradient>
</defs>
</svg>
